X: 10600
T: Dougie MacLean's
R: reel
M: 4/4
K: Eminor
|:BEE2 EFGE|GGFG A2GA|BFGB EFGE|GGFG A2GA|
BEE2 EFGE|GGFG A2GA|BFGB EFGE|FEED E4:|
Bee2 efge|ffdf A3B|cAA2 ABcA|BGAF GEFD|
Bee2 efge|ffdf A3B|cAA2 ABcA|e/f/gfd e3d|
Bee2 efge|ffdf A3B|cAA2 cAA2|ABGA BGFE|
Bee2 efge|ffdf A3B|cAA2 ABcA|e/f/gfd e3d||

